X:12693
T:Paddy Ryan's Reel
R:Reel
S:
H:
N:
D:
Z:Adrian Scahill
M:4/4
L:1/8
K:G
DGG2 BGAG|DGGF GDB,E|DGGF GABc|d2 (3efg fdcA|\
BGG2 BGAG|DGGF GDB,G,|A,B,CD EFGB|cAFA G3B:||\
dgg2 dgbg|g2bg agfg|eaa2 c'aea|a^gab a=gfe|\
dgg2 dgbg|g2bg agfe|dgg2 bgdB|cAFA G4:||
